X:38
T:Twisted Spire
T:( in Chesterfield )
C:Chris Perry
S:The Fiddle Player's Tunebook
Z:Written after a visit to Chesterfield
M:4/4
L:1/8
Q:100
K:D
DE |\
"D"FAAF "A"E2 A2 |\
"G"BGFG "A"E2 ED |\
"A"\
|1 CDEF GABd |\
"G"cAGF "A"E2 :|2\
"A"CDEF GABc |\
"D"d2 f2 d2 |:
ef |\
"G"gfed "A"cB A2 |\
"D"fedc "Em"BA G2 |\
"G"edcA "A"edcA \
|1 "D"dcde "D"f2 :|2\
"D"d2 "A"f2 "D"d2 A2 ||\
"G"BGDG BdcB |\
"D"AFDF AdcB |\
"A"cAEA cedc |\
"D"d2 d2 "D7"=c2 d=c |\
"G"BGDG BdcB |\
"D"AFAd f2 ef |\
"A"gece Aceg |\
"D"f2 d2 "D"[F4 d4] |
